svg/night-light.svg

<?xml version="1.0" encoding="UTF-8"?>
<svg version="1.1" width="24" height="24" viewBox="0 0 24 24" xmlns="http://www.w3.org/2000/svg">
<style>path{fill:#000}@media (prefers-color-scheme:dark){path{fill:#fff}}</style>
<path d="m12 2a10 10 0 0 0-10 10 10 10 0 0 0 2.9473 7.0527l-2.9473 2.9473h10 10l-2.9473-2.9473a10 10 0 0 0 2.9473-7.0527 10 10 0 0 0-10-10zm0 1.5a8.5 8.5 0 0 1 8.5 8.5 8.5 8.5 0 0 1-8.5 8.5 8.5 8.5 0 0 1-8.5-8.5 8.5 8.5 0 0 1 8.5-8.5zm-2.4668 3.0332a6 6 0 0 0-3.5332 5.4668 6 6 0 0 0 6 6 6 6 0 0 0 5.4668-3.5332 6 6 0 0 1-2.4668 0.5332 6 6 0 0 1-6-6 6 6 0 0 1 0.5332-2.4668z"/>
</svg>

<svg width="24" height="24" xmlns="http://www.w3.org/2000/svg">
<style>@media (prefers-color-scheme:dark){path{fill:#fff}}</style>
<path d="M12 2A10 10 0 0 0 2 12a10 10 0 0 0 2.947 7.053L2 22h20l-2.947-2.947A10 10 0 0 0 22 12 10 10 0 0 0 12 2zm0 1.5a8.5 8.5 0 0 1 8.5 8.5 8.5 8.5 0 0 1-8.5 8.5A8.5 8.5 0 0 1 3.5 12 8.5 8.5 0 0 1 12 3.5zM9.533 6.533A6 6 0 0 0 6 12a6 6 0 0 0 6 6 6 6 0 0 0 5.467-3.533A6 6 0 0 1 15 15a6 6 0 0 1-6-6 6 6 0 0 1 .533-2.467z"/>
</svg>
